src/assets/tokens/svETH.svg

<svg width="126" height="126" viewBox="0 0 126 126" fill="none" xmlns="http://www.w3.org/2000/svg">
<path d="M63 124.5C96.9655 124.5 124.5 96.9655 124.5 63C124.5 29.0345 96.9655 1.5 63 1.5C29.0345 1.5 1.5 29.0345 1.5 63C1.5 96.9655 29.0345 124.5 63 124.5Z" fill="white" stroke="url(#paint0_linear_1556_1012)" stroke-width="3"/>
<circle cx="63.2933" cy="63.2933" r="50.6456" fill="#F8F5FF" stroke="#D4C6F5" stroke-width="3"/>
<path d="M63.6052 29.0728V52.5626L83.4582 61.436L63.6052 29.0728Z" fill="#90A7FF"/>
<path d="M63.6032 29.0728L43.7387 61.436L63.6032 52.5626V29.0728Z" fill="#D4DDFF"/>
<path d="M63.6052 76.6622V92.6252L83.4697 65.1302L63.6052 76.6622Z" fill="#7B96FF"/>
<path d="M63.6032 92.6253V76.6508L43.7387 65.1418L63.6032 92.6253Z" fill="#D4DDFF"/>
<path d="M63.6052 72.9681L83.4582 61.4591L63.6052 52.5857V72.9681Z" fill="#466BF3"/>
<path d="M43.7387 61.4361L63.6032 72.945V52.5626L43.7387 61.4361Z" fill="#8DA4FF"/>
<defs>
<linearGradient id="paint0_linear_1556_1012" x1="63" y1="3" x2="63" y2="123" gradientUnits="userSpaceOnUse">
<stop stop-color="#6960EC"/>
<stop offset="1" stop-color="#A988FF"/>
</linearGradient>
</defs>
</svg>

<svg fill="none" height="126" width="126" xmlns="http://www.w3.org/2000/svg"><linearGradient id="a" gradientUnits="userSpaceOnUse" x1="63" x2="63" y1="3" y2="123"><stop offset="0" stop-color="#6960ec"/><stop offset="1" stop-color="#a988ff"/></linearGradient><path d="M63 124.5c33.966 0 61.5-27.534 61.5-61.5 0-33.965-27.534-61.5-61.5-61.5C29.035 1.5 1.5 29.035 1.5 63c0 33.966 27.535 61.5 61.5 61.5z" fill="#fff" stroke="url(#a)" stroke-width="3"/><circle cx="63.293" cy="63.293" fill="#f8f5ff" r="50.646" stroke="#d4c6f5" stroke-width="3"/><path d="M63.605 29.073v23.49l19.853 8.873z" fill="#90a7ff"/><path d="M63.603 29.073L43.74 61.436l19.864-8.873v-23.49z" fill="#d4ddff"/><path d="M63.605 76.662v15.963L83.47 65.13z" fill="#7b96ff"/><path d="M63.603 92.625V76.651L43.74 65.14l19.864 27.484z" fill="#d4ddff"/><path d="M63.605 72.968L83.458 61.46l-19.853-8.873v20.382z" fill="#466bf3"/><path d="M43.739 61.436l19.864 11.509V52.563L43.74 61.436z" fill="#8da4ff"/></svg>
